X:254
T:Polska efter August Nyholm (SvL Hälsingland 254)
R:Polska
O:Delsbo, Hälsingland
S:August Nyholm
B:Svenska Låtar Hälsingland
M:3/4
L:1/8
K:A
e/f/e/^d/ ef ga|fg ag e^d|e/f/e/^d/ ef ga|fa/g/ e2 z2:|
|:cd fe cd|Bc dc Ac|ed fe cd B(d/c/) A2 A,2:|

